X: 1652
T: Annie's Favourite
R: hornpipe
M: 4/4
K: Gmajor
(3DEF|G2BG ABBA|defa gfdc|~B3d cAFA|GBAF DEED|
GABG ABBA|defa gfdc|~B3d cAFG|AG~G2 G2:|
|:Bd|~g3g gfdf|g2bg afde|fefg afge|fde^c d=cAF|
G2BG ABBA|defa gfdc|~B3d cAFG|AGG2 G2:|

